mobile/apps/auth/assets/custom-icons/icons/migros.svg

<?xml version="1.0" encoding="UTF-8" standalone="no"?>
<!-- Created with Inkscape (http://www.inkscape.org/) -->
<svg
  xmlns:svg="http://www.w3.org/2000/svg"
  xmlns="http://www.w3.org/2000/svg"
  version="1.0"
  width="602.36218"
  height="139.53543"
  id="svg3058">
  <defs
    id="defs3060" />
  <g
    id="layer1">
    <path
      d="M 106.369,119.88512 L 106.369,62.018665 L 81.544594,119.88512 L 67.772114,119.88512 L 43.359087,62.018665 L 43.359087,119.88512 L 17.716529,119.88512 L 17.716529,19.650275 L 52.045504,19.650275 L 75.627274,76.245395 L 100.30782,19.650275 L 132.00731,19.650275 L 132.00731,119.88512 L 106.369,119.88512 z M 151.74424,119.88514 L 151.74424,19.650295 L 173.67129,19.650295 C 175.59247,19.650295 177.51259,21.571475 177.51259,23.661675 L 177.51259,119.88514 L 151.74424,119.88514 z M 248.65971,62.160065 L 281.25389,62.160065 C 283.82526,62.160065 285.27873,64.264785 285.27873,66.736595 L 285.27873,118.51459 C 276.11148,120.56404 261.78448,121.82085 251.13365,121.82085 C 213.76593,121.82085 194.05842,104.00581 194.05842,69.633955 C 194.05948,38.962025 213.76593,17.714585 246.61239,17.714585 C 261.08007,17.714585 273.76688,21.571475 281.93349,27.080965 L 271.83223,44.330845 C 264.76546,41.165965 255.25983,38.962025 248.53357,38.962025 C 229.64739,38.962025 220.81534,51.492935 220.81534,69.633955 C 220.81534,89.002025 231.04275,100.96814 249.90412,100.96814 C 253.35105,100.96814 257.64767,100.84093 261.08007,100.30377 L 261.08007,82.644625 L 248.65971,82.644625 L 248.65971,62.160065 z M 342.46983,38.962025 L 329.85459,38.962025 L 329.85459,64.094705 L 342.46983,64.094705 C 349.99971,64.094705 355.91916,60.082975 355.91916,50.546515 C 355.92022,40.883215 349.99865,38.962025 342.46983,38.962025 z M 361.45735,119.88514 L 349.56211,92.294115 C 347.1314,86.671595 345.43451,83.888325 340.27794,83.888325 L 329.85459,83.888325 L 329.85459,119.88514 L 304.66452,119.88514 L 304.66452,23.661675 C 304.66452,21.571475 306.95349,19.650295 308.59192,19.650295 L 344.15113,19.650295 C 363.47597,19.650295 380.04625,23.661675 380.04625,48.611165 C 380.04625,59.785695 373.86247,71.230215 362.26026,73.547185 C 368.0401,75.510535 373.86247,82.913205 377.01176,90.951915 L 388.47046,119.88514 L 361.45735,119.88514 z M 444.16061,38.962025 C 430.64148,38.962025 421.01998,48.611165 421.01998,69.633955 C 421.02105,90.951915 430.64042,100.57341 444.15991,100.57341 C 455.75892,100.57341 465.25215,90.951915 465.25215,69.633955 C 465.25321,48.611165 455.75892,38.962025 444.16061,38.962025 z M 444.16061,121.82085 C 411.34321,121.82085 393.97817,98.638055 393.97817,69.633955 C 393.97817,40.883215 411.34215,17.714585 444.15991,17.714585 C 474.90235,17.714585 492.29396,40.883215 492.29396,69.633955 C 492.29502,98.636985 474.90128,121.82085 444.16061,121.82085 z M 541.64053,121.82085 C 524.689,121.82085 508.94892,115.74656 501.92857,110.91455 L 513.3575,90.655685 C 519.73014,94.512575 532.13207,100.4455 543.56101,100.4455 C 550.03179,100.4455 558.21187,99.202855 558.21187,92.012065 C 558.21187,85.258875 549.07227,83.196315 537.08986,79.762855 C 522.62431,75.623205 505.78439,69.859315 505.78439,50.405135 C 505.7851,29.439745 524.41723,17.714585 548.66337,17.714585 C 564.66778,17.714585 577.07254,23.378915 583.4023,29.439745 L 569.48526,45.277265 C 562.60593,41.165965 555.57104,37.973445 547.68719,37.973445 C 538.19396,37.973445 532.82585,41.576285 532.82585,46.816835 C 532.82691,52.015925 539.70518,54.671985 548.37813,57.285175 C 563.71002,62.018685 584.64565,66.850335 584.64565,86.926005 C 584.64671,107.60829 568.11435,121.82085 541.64053,121.82085 z "
      style="fill:#f60;fill-opacity:1;fill-rule:evenodd"
      id="polygon3036" />
  </g>
</svg>

<svg xmlns="http://www.w3.org/2000/svg" version="1.0" viewBox="0 0 602.362 139.535"><path d="M106.369 119.885V62.02l-24.824 57.866H67.772L43.36 62.02v57.866H17.717V19.65h34.329l23.581 56.595 24.68-56.595h31.7v100.235H106.37zm45.375 0V19.65h21.927c1.921 0 3.842 1.921 3.842 4.012v96.223h-25.769zM248.66 62.16h32.594c2.571 0 4.025 2.105 4.025 4.577v51.778c-9.168 2.049-23.495 3.306-34.145 3.306-37.368 0-57.076-17.815-57.076-52.187.001-30.672 19.708-51.92 52.554-51.92 14.468 0 27.155 3.857 35.321 9.367l-10.1 17.25c-7.068-3.165-16.573-5.369-23.3-5.369-18.886 0-27.718 12.53-27.718 30.672 0 19.368 10.228 31.334 29.09 31.334 3.446 0 7.743-.127 11.175-.664v-17.66h-12.42V62.16zm93.81-23.198h-12.615v25.133h12.615c7.53 0 13.45-4.012 13.45-13.548 0-9.664-5.921-11.585-13.45-11.585zm18.987 80.923-11.895-27.59c-2.43-5.623-4.127-8.407-9.284-8.407h-10.423v35.997h-25.19V23.662c0-2.09 2.288-4.012 3.927-4.012h35.56c19.324 0 35.894 4.012 35.894 28.961 0 11.175-6.184 22.62-17.786 24.936 5.78 1.964 11.602 9.366 14.752 17.405l11.458 28.933h-27.013zm82.704-80.923c-13.52 0-23.141 9.65-23.141 30.672.001 21.318 9.62 30.94 23.14 30.94 11.599 0 21.092-9.622 21.092-30.94.001-21.023-9.493-30.672-21.091-30.672zm0 82.859c-32.818 0-50.183-23.183-50.183-52.187 0-28.75 17.364-51.92 50.182-51.92 30.742 0 48.134 23.17 48.134 51.92.001 29.003-17.393 52.187-48.133 52.187zm97.48 0c-16.952 0-32.692-6.074-39.712-10.906l11.428-20.26c6.373 3.858 18.775 9.79 30.204 9.79 6.47 0 14.65-1.242 14.65-8.433 0-6.753-9.139-8.816-21.121-12.25-14.466-4.139-31.306-9.903-31.306-29.357.001-20.965 18.633-32.69 42.88-32.69 16.004 0 28.409 5.664 34.738 11.725l-13.917 15.837c-6.88-4.111-13.914-7.304-21.798-7.304-9.493 0-14.861 3.603-14.861 8.844 0 5.199 6.88 7.855 15.552 10.468 15.332 4.734 36.268 9.565 36.268 29.641 0 20.682-16.532 34.895-43.005 34.895z" style="fill:#f60;fill-opacity:1;fill-rule:evenodd"/></svg>
